X: 39700
T: Terry 'Cuz' Teahan's
R: polka
M: 2/4
K: Dmajor
|:FA FA|d2 d2|FA FA|FE E2|
FA FA|d2 f>e|dB AF|ED D2:|
|:fe ed|Bd A2|fe ed|fe e2|
d>e fd|Bd A2|FE/F/ AF|EF D2:|

